icons/svg/blinds.svg

﻿<?xml version="1.0" encoding="utf-8"?>
<!DOCTYPE svg PUBLIC "-//W3C//DTD SVG 1.1//EN" "http://www.w3.org/Graphics/SVG/1.1/DTD/svg11.dtd">
<svg xmlns="http://www.w3.org/2000/svg" xmlns:xlink="http://www.w3.org/1999/xlink" version="1.1" baseProfile="full" width="24" height="24" viewBox="0 0 24.00 24.00" enable-background="new 0 0 24.00 24.00" xml:space="preserve">
	<path fill="#000000" fill-opacity="1" stroke-width="0.2" stroke-linejoin="round" d="M 3,2L 21,2C 21.5523,2 22,2.44772 22,3L 22,5C 22,5.55229 21.5523,6 21,6L 20,6L 20,13C 20,13.5523 19.5523,14 19,14L 13,14L 13,16.1707C 14.1652,16.5825 15,17.6938 15,19C 15,20.6569 13.6569,22 12,22C 10.3431,22 9,20.6569 9,19C 9,17.6938 9.83481,16.5825 11,16.1707L 11,14L 5,14C 4.44771,14 4,13.5523 4,13L 4,6L 3,6C 2.44772,6 2,5.55229 2,5L 2,3C 2,2.44772 2.44772,2 3,2 Z M 12,18C 11.4477,18 11,18.4477 11,19C 11,19.5523 11.4477,20 12,20C 12.5523,20 13,19.5523 13,19C 13,18.4477 12.5523,18 12,18 Z "/>
</svg>

<svg xmlns="http://www.w3.org/2000/svg" version="1.1" baseProfile="full" width="24" height="24" viewBox="0 0 24.00 24.00" xml:space="preserve"><path fill="#000" fill-opacity="1" stroke-width=".2" stroke-linejoin="round" d="M3 2h18c.552 0 1 .448 1 1v2c0 .552-.448 1-1 1h-1v7c0 .552-.448 1-1 1h-6v2.17c1.165.412 2 1.524 2 2.83 0 1.657-1.343 3-3 3s-3-1.343-3-3c0-1.306.835-2.418 2-2.83V14H5c-.552 0-1-.448-1-1V6H3c-.552 0-1-.448-1-1V3c0-.552.448-1 1-1zm9 16c-.552 0-1 .448-1 1s.448 1 1 1 1-.448 1-1-.448-1-1-1z"/></svg>
